svg/cart_minus.svg

<svg xmlns="http://www.w3.org/2000/svg" viewBox="0 0 24 24"><path d="M16 6V4H8v2M7 18a2 2 0 0 0-2 2 2 2 0 0 0 2 2 2 2 0 0 0 2-2 2 2 0 0 0-2-2m10 0a2 2 0 0 0-2 2 2 2 0 0 0 2 2 2 2 0 0 0 2-2 2 2 0 0 0-2-2m-9.83-3.25.03-.12.9-1.63h7.45c.75 0 1.41-.41 1.75-1.03l3.86-7.01L19.42 4h-.01l-1.1 2-2.76 5H8.53l-.13-.27L6.16 6l-.95-2-.94-2H1v2h2l3.6 7.59-1.35 2.45c-.16.28-.25.61-.25.96a2 2 0 0 0 2 2h12v-2H7.42c-.13 0-.25-.11-.25-.25"/></svg>

<?xml version="1.0" encoding="UTF-8"?><!DOCTYPE svg PUBLIC "-//W3C//DTD SVG 1.1//EN" "http://www.w3.org/Graphics/SVG/1.1/DTD/svg11.dtd"><svg xmlns="http://www.w3.org/2000/svg" xmlns:xlink="http://www.w3.org/1999/xlink" version="1.1" id="mdi-cart-minus" width="24" height="24" viewBox="0 0 24 24"><path d="M16,6V4H8V6M7,18A2,2 0 0,0 5,20A2,2 0 0,0 7,22A2,2 0 0,0 9,20A2,2 0 0,0 7,18M17,18A2,2 0 0,0 15,20A2,2 0 0,0 17,22A2,2 0 0,0 19,20A2,2 0 0,0 17,18M7.17,14.75L7.2,14.63L8.1,13H15.55C16.3,13 16.96,12.59 17.3,11.97L21.16,4.96L19.42,4H19.41L18.31,6L15.55,11H8.53L8.4,10.73L6.16,6L5.21,4L4.27,2H1V4H3L6.6,11.59L5.25,14.04C5.09,14.32 5,14.65 5,15A2,2 0 0,0 7,17H19V15H7.42C7.29,15 7.17,14.89 7.17,14.75Z" /></svg>
